X:132
T:Gravel Walk
Z: id:dc-reel-122
M:C
L:1/8
K:A Dorian
A2eA BAeB|A2ed BAGB|A2eA Bdef|gedc BAGB:|!
A2aA gAfA|A2ed BAGB|A2aA gAfA|efge dBGB|!
A2aA gAfA|A2ed BAGB|ABcd egfa|gedc BAGB|]!
cAAG A3B|cAA2 dBGB|cAAG A3f|gfge dBGB:|!
c2gc acgc|c2gc BAGB|c2gc acga|gedc BAGB|!
c2gc acgc|c2gc BAGB|ABcd egfa|gedc BAGB:|!

